assets/Nut and bolt/Flat/nut_and_bolt_flat.svg

<svg width="32" height="32" viewBox="0 0 32 32" fill="none" xmlns="http://www.w3.org/2000/svg">
<path d="M7.79736 12.747L12.7471 7.79724L29.3641 24.4142C30.1452 25.1953 30.1452 26.4616 29.3641 27.2427L27.2428 29.364C26.4618 30.145 25.1954 30.145 24.4144 29.364L7.79736 12.747Z" fill="#CDC4D6"/>
<path d="M5.2627 9.01003L9.0027 5.28003L13.2912 6.6578L14.2327 10.51L10.4927 14.25L6.88581 12.8514L5.2627 9.01003Z" fill="#B4ACBC"/>
<path d="M16.2527 20.01L19.9927 16.27L24.7785 16.8746L25.2227 21.5L21.4827 25.24L17.3144 24.127L16.2527 20.01Z" fill="#B4ACBC"/>
<path d="M5.2725 9.02002L2.3225 11.97C1.8925 12.4 1.8925 13.11 2.3225 13.54L5.9825 17.2C6.4125 17.63 7.1225 17.63 7.5525 17.2L10.5025 14.25L5.2725 9.02002Z" fill="#998EA4"/>
<path d="M16.2625 20.01L13.3125 22.96C12.8825 23.39 12.8825 24.1 13.3125 24.53L16.9725 28.19C17.4025 28.62 18.1125 28.62 18.5425 28.19L21.4925 25.24L16.2625 20.01Z" fill="#998EA4"/>
<path d="M11.9125 16.85L16.0425 10.9C16.1825 10.71 16.1525 10.46 15.9925 10.29C15.7825 10.08 15.4325 10.12 15.2625 10.36L11.1325 16.31C10.9925 16.5 11.0225 16.76 11.1825 16.92C11.3925 17.13 11.7425 17.09 11.9125 16.85Z" fill="#998EA4"/>
<path d="M13.6124 18.55L17.7424 12.6C17.8724 12.41 17.8524 12.15 17.6924 11.99C17.4824 11.78 17.1324 11.82 16.9624 12.06L12.8324 18.01C12.6924 18.2 12.7224 18.46 12.8824 18.62C13.0924 18.83 13.4424 18.79 13.6124 18.55Z" fill="#998EA4"/>
<path d="M19.4325 14.29L15.3025 20.24C15.1325 20.48 14.7825 20.52 14.5725 20.31C14.4125 20.15 14.3825 19.89 14.5225 19.7L18.6525 13.75C18.8225 13.51 19.1725 13.47 19.3825 13.68C19.5425 13.84 19.5625 14.1 19.4325 14.29Z" fill="#998EA4"/>
<path d="M22.7726 27.71L26.9026 21.76C27.0426 21.57 27.0126 21.31 26.8526 21.15C26.6426 20.94 26.2926 20.98 26.1226 21.22L21.9926 27.17C21.8526 27.36 21.8826 27.62 22.0426 27.78C22.2526 27.99 22.6026 27.95 22.7726 27.71Z" fill="#998EA4"/>
<path d="M28.6025 23.46L24.4725 29.41C24.3025 29.65 23.9525 29.69 23.7425 29.48C23.5825 29.32 23.5525 29.06 23.6925 28.87L27.8225 22.92C27.9925 22.68 28.3425 22.64 28.5525 22.85C28.7125 23.01 28.7325 23.27 28.6025 23.46Z" fill="#998EA4"/>
<path d="M9.00244 5.28L11.9524 2.33C12.3824 1.89 13.0924 1.89 13.5224 2.33L17.1824 5.99C17.6124 6.42 17.6124 7.13 17.1824 7.56L14.2324 10.51L9.00244 5.28Z" fill="#CDC4D6"/>
<path d="M19.9924 16.27L22.9424 13.32C23.3724 12.88 24.0824 12.88 24.5124 13.32L28.1724 16.98C28.6024 17.41 28.6024 18.12 28.1724 18.55L25.2224 21.5L19.9924 16.27Z" fill="#CDC4D6"/>
</svg>

<svg xmlns="http://www.w3.org/2000/svg" width="32" height="32" fill="none"><path fill="#CDC4D6" d="m7.797 12.747 4.95-4.95 16.617 16.617a2 2 0 0 1 0 2.829l-2.121 2.121a2 2 0 0 1-2.829 0L7.797 12.747Z"/><path fill="#B4ACBC" d="m5.263 9.01 3.74-3.73 4.288 1.378.942 3.852-3.74 3.74-3.607-1.399L5.263 9.01ZM16.253 20.01l3.74-3.74 4.786.605.444 4.625-3.74 3.74-4.169-1.113-1.061-4.117Z"/><path fill="#998EA4" d="m5.272 9.02-2.95 2.95c-.43.43-.43 1.14 0 1.57l3.66 3.66c.43.43 1.14.43 1.57 0l2.95-2.95-5.23-5.23ZM16.262 20.01l-2.95 2.95c-.43.43-.43 1.14 0 1.57l3.66 3.66c.43.43 1.14.43 1.57 0l2.95-2.95-5.23-5.23ZM11.912 16.85l4.13-5.95c.14-.19.11-.44-.05-.61a.482.482 0 0 0-.73.07l-4.13 5.95a.47.47 0 0 0 .05.61c.21.21.56.17.73-.07ZM13.612 18.55l4.13-5.95c.13-.19.11-.45-.05-.61a.482.482 0 0 0-.73.07l-4.13 5.95a.47.47 0 0 0 .05.61c.21.21.56.17.73-.07ZM19.433 14.29l-4.13 5.95c-.17.24-.52.28-.73.07a.47.47 0 0 1-.05-.61l4.13-5.95c.17-.24.52-.28.73-.07.16.16.18.42.05.61ZM22.773 27.71l4.13-5.95a.47.47 0 0 0-.05-.61.482.482 0 0 0-.73.07l-4.13 5.95a.47.47 0 0 0 .05.61c.21.21.56.17.73-.07ZM28.602 23.46l-4.13 5.95c-.17.24-.52.28-.73.07a.47.47 0 0 1-.05-.61l4.13-5.95c.17-.24.52-.28.73-.07.16.16.18.42.05.61Z"/><path fill="#CDC4D6" d="m9.002 5.28 2.95-2.95c.43-.44 1.14-.44 1.57 0l3.66 3.66c.43.43.43 1.14 0 1.57l-2.95 2.95-5.23-5.23ZM19.992 16.27l2.95-2.95c.43-.44 1.14-.44 1.57 0l3.66 3.66c.43.43.43 1.14 0 1.57l-2.95 2.95-5.23-5.23Z"/></svg>
